X: 3362
T: Ben March's Cottage
R: jig
M: 6/8
K: Dmajor
|:DD/D/D DEF|AA/A/A BAB|dd/d/d efg|gfe dBA:|
d2 faff|a2 fgfe|~d2 faf|fed BBA|Bd2 faf|
fa2 fgf|e gg/g/g|gfed BA|ABA||

